X:1
T:Title
%%score { ( 1 3 ) | ( 2 4 ) }
L:1/8
Q:1/4=116
M:4/4
K:G
V:1 treble nm="Grand Piano"
V:3 treble 
V:2 treble 
V:4 treble 
V:1
 G2 B2 B2 d2 | G2 B2 B4 | z4 c2 z2 | e2 d2 d2 z2 | G2 B2 B2 d2 | G2 B2 B4 | %6
w: H.~Waters * * *||||||
 [CEA]2 [EAc]2 [DGB]2 [CFA]2 |[M:2/4] G4 | d2 c2 |[M:4/4] B4 B2 d2 | [Gd]8 | [FA]4 [Fc]2 [Fe]2 | %12
w: ||||||
 e2 d2 d2 c2 | B4 B2 d2 | [Gd]8 | [CEA]2 [EAc]2 [DGB]2 [CFA]2 | [G,B,DG]8 |] %17
w: |||||
V:2
 [G,B,E]2 [G,DG]2 [G,DG]2 [G,B,G]2 | [G,B,]2 [G,DG]2 [G,DG]4 | [D,D]2 [D,A,]2 A,2[K:treble] C2 | %3
 [G,CG]2 [G,B,G]2 [G,B,G]2 z2 | [G,B,D]2 [G,DG]2 [G,DG]2 [G,B,G]2 | [G,B,]2 [G,DG]2 [G,DG]4 | %6
 C,2 C,2 D,2 D,2 |[M:2/4] [G,B,]4 | [G,B,G]2 [G,EG]2 |[M:4/4] [G,DG]4 [G,DG]2 [G,B,G]2 | [B,,G,]8 | %11
 [D,A,]4 [D,A,]2 [D,C]2 | [G,G]2- [G,B,G]2 [G,B,G]2 [G,EG]2 | [G,DG]4 [G,DG]2 [G,B,G]2 | [B,,G,]8 | %15
 C,2 C,2 D,2 D,2 | G,,8 |] %17
V:3
 x8 | x8 | [FA]2 [Fc]2 F2- [Fe]2 | x8 | x8 | x8 | x8 |[M:2/4] x4 | x4 |[M:4/4] x8 | x8 | x8 | x8 | %13
 x8 | x8 | x8 | x8 |] %17
V:4
 x8 | x8 | z4 D,4[K:treble] | x8 | x8 | x8 | x8 |[M:2/4] x4 | x4 |[M:4/4] x8 | x8 | x8 | C2 z2 z4 | %13
 x8 | x8 | x8 | x8 |] %17

